src/assets/img/partners/dev-hero.svg

<svg width="66" height="32" viewBox="0 0 66 32" fill="none" xmlns="http://www.w3.org/2000/svg">
<g clip-path="url(#clip0_3518_23005)">
<path fill-rule="evenodd" clip-rule="evenodd" d="M18.3158 22.7875C18.3158 26.4135 16.0777 31.9075 8.9934 31.8959H0.0488281V0H9.18232C16.0141 0 18.312 5.48626 18.3139 9.11422L18.3158 22.7875ZM9.50039 5.96819C10.2483 5.96819 10.9982 6.24771 11.7462 6.80675C12.4922 7.36578 12.8681 8.20627 12.87 9.32434V22.7508C12.87 23.8708 12.4961 24.7094 11.7481 25.2684C11.0002 25.8275 10.2503 26.107 9.50232 26.107H6.13847V5.96819H9.50039Z" fill="white"/>
<path d="M37.724 5.69639H27.4532V13.1027H33.7317V18.8029H27.4532V26.2072H37.7259V31.9075H25.7394C23.5881 31.9634 21.7992 30.2631 21.7452 28.1118V3.99422C21.6932 1.84482 23.3953 0.0597588 25.5447 0.0057829H37.7259L37.724 5.69639Z" fill="white"/>
<path d="M57.7028 27.921C55.1582 33.8487 50.5992 32.6689 48.5577 27.921L41.1303 0.00771249H47.4088L53.136 21.9296L58.8363 0.00771249H65.1168L57.7028 27.921Z" fill="white"/>
</g>
<defs>
<clipPath id="clip0_3518_23005">
<rect width="65.1566" height="32" fill="white" transform="translate(0.0488281)"/>
</clipPath>
</defs>
</svg>

<svg xmlns="http://www.w3.org/2000/svg" width="66" height="32" fill="none"><clipPath id="a"><path d="M.049 0h65.156v32H.05z"/></clipPath><g fill="#fff" clip-path="url(#a)"><path fill-rule="evenodd" d="M18.316 22.788c0 3.626-2.238 9.12-9.323 9.108H.05V0h9.133c6.832 0 9.13 5.486 9.132 9.114zM9.5 5.968q1.123 0 2.246.839 1.12.84 1.124 2.517v13.427q0 1.68-1.122 2.517-1.123.84-2.246.839H6.138V5.968z" clip-rule="evenodd"/><path d="M37.724 5.696h-10.27v7.407h6.278v5.7h-6.279v7.404h10.273v5.7H25.739a3.895 3.895 0 0 1-3.994-3.795V3.994a3.9 3.9 0 0 1 3.8-3.988h12.18zM57.703 27.921c-2.545 5.928-7.104 4.748-9.145 0L41.13.008h6.279l5.727 21.922 5.7-21.922h6.28z"/></g></svg>
